icons/shield-slash-16.svg

<svg xmlns="http://www.w3.org/2000/svg" width="16" height="16" viewBox="0 0 16 16"><path d="M8.533.133a1.75 1.75 0 00-1.066 0l-2.091.67a.75.75 0 00.457 1.428l2.09-.67a.25.25 0 01.153 0l5.25 1.68a.25.25 0 01.174.239V7c0 .233-.008.464-.025.694a.75.75 0 101.495.112c.02-.27.03-.538.03-.806V3.48a1.75 1.75 0 00-1.217-1.667L8.533.133z"/><path fill-rule="evenodd" d="M1 2.857l-.69-.5a.75.75 0 11.88-1.214l14.5 10.5a.75.75 0 11-.88 1.214l-1.282-.928c-.995 1.397-2.553 2.624-4.864 3.608-.425.181-.905.18-1.329 0-2.447-1.042-4.049-2.356-5.032-3.855C1.32 10.182 1 8.566 1 7V2.857zm1.5 1.086V7c0 1.358.275 2.666 1.057 3.86.784 1.194 2.121 2.34 4.366 3.297.05.02.106.02.153 0 2.127-.905 3.439-1.982 4.237-3.108L2.5 3.943z"/></svg>

<svg xmlns="http://www.w3.org/2000/svg" width="16" height="16" viewBox="0 0 16 16">
  <defs/>
  <path d="M8.533,0.133 A1.75 1.75 0 0 0 7.467,0.133 L5.376,0.803 A0.75 0.75 0 0 0 5.833,2.231 L7.923,1.561 A0.25 0.25 0 0 1 8.076,1.561 L13.326,3.241 A0.25 0.25 0 0 1 13.5,3.48 L13.5,7 C13.5,7.233 13.492,7.464 13.475,7.694 A0.75 0.75 0 1 0 14.97,7.806 C14.99,7.536 15,7.268 15,7 L15,3.48 A1.75 1.75 0 0 0 13.783,1.813 L8.533,0.133 Z"/>
  <path d="M1,2.857 L0.31,2.357 C0.085,2.203 -0.04,1.939 -0.014,1.667 C0.012,1.395 0.183,1.159 0.433,1.05 C0.684,0.941 0.974,0.977 1.19,1.143 L15.69,11.643 C15.915,11.797 16.04,12.061 16.014,12.333 C15.988,12.605 15.817,12.841 15.567,12.95 C15.316,13.059 15.026,13.023 14.81,12.857 L13.528,11.929 C12.533,13.326 10.975,14.553 8.664,15.537 C8.239,15.718 7.759,15.717 7.335,15.537 C4.888,14.495 3.286,13.181 2.303,11.682 C1.32,10.182 1,8.566 1,7 Z M2.5,3.943 L2.5,7 C2.5,8.358 2.775,9.666 3.557,10.86 C4.341,12.054 5.678,13.2 7.923,14.157 C7.973,14.177 8.029,14.177 8.076,14.157 C10.203,13.252 11.515,12.175 12.313,11.049 Z"/>
</svg>
